!!!COM: Louise Reichardt
!!!CNT: Deutsch
!!!TXO: Deutsch
!!!OTL: Fu2r die Laute componirt
!!!LYR: Brentano
!!!OPR: 
!!!OPS: No opus information available
!!!ONM: No. 12
!!!ENC: Ben Fuhrman
!!!YOR: Louise Reichardt: Songs
!!!YOR: New York, Da Capo Press, 1981
!!!ODT: 1800 - 1826
!!NB: Only vocal melody encoded.
!!NB: First instance of melodic material only encoded.
!!created: 2/18/10 12:15PM
!!proofed and posted: 2/18/10 12:15PM
**kern	**silbe
*clef G2	*
*k[b-e-]	*
*M6/8	*
*MM[Wehmu2thig und langsam]	*
{8g	{Ich
=1	=1
4f	wollt'
8b-	ein
8b-	Stra2us-
8a	|
8b-	-lein
=2	=2
(4bn	bin
8cc)	|
4cc	den,
8f	da
=3	=3
4b-	kam
8f	die
4f	dunk-
8e-	-le
=4	=4
4.d}	Nacht,}
4r	.
{8f	{kein
=5	=5
4f	Blu2m-
8b-	-lein
8b-	war
8a	|
8b-	zu
=6	=6
4.bn	fin-
4cc	-den
8f	sonst
=7	=7
4f	ha2tt'
8dd	ich
(8.cc	dirs
16ee-	|
16dd)	|
16cc	geb-
=8	=8
4.b-}	-racht.}
4.r	.
==	==
*-	*-
